Newaita-dark/mimetypes/32/image-vnd.adobe.photoshop.svg

<svg height="32pt" viewBox="0 0 32 32" width="32pt" xmlns="http://www.w3.org/2000/svg" xmlns:xlink="http://www.w3.org/1999/xlink"><linearGradient id="a"><stop offset="0" stop-opacity=".27451"/><stop offset="1" stop-opacity="0"/></linearGradient><linearGradient id="b" gradientUnits="userSpaceOnUse" x1="16.538045" x2="16.538045" xlink:href="#a" y1="28.033935" y2="29.35697887502"/><linearGradient id="c"><stop offset="0" stop-opacity=".313725"/><stop offset=".222222" stop-opacity=".27451"/><stop offset="1" stop-opacity="0"/></linearGradient><radialGradient id="d" cx="450.90894" cy="189.57936" gradientTransform="matrix(.00000017 -.0781325 -.140638 -.0000001 49.484568 63.595334)" gradientUnits="userSpaceOnUse" r="21.166656" xlink:href="#c"/><radialGradient id="e" cx="450.90894" cy="189.57936" gradientTransform="matrix(-.00000017 .0781325 .140638 .0000001 -18.393052 -7.527479)" gradientUnits="userSpaceOnUse" r="21.166656" xlink:href="#c"/><radialGradient id="f" cx="450.90894" cy="189.57936" gradientTransform="matrix(-.00000017 -.0781325 .140638 -.0000001 -18.393052 63.595334)" gradientUnits="userSpaceOnUse" r="21.166656" xlink:href="#c"/><radialGradient id="g" cx="450.90894" cy="189.57936" gradientTransform="matrix(.00000017 .0781325 -.140638 .0000001 49.484566 -7.527479)" gradientUnits="userSpaceOnUse" r="21.166656" xlink:href="#c"/><linearGradient id="h" gradientUnits="userSpaceOnUse" x1="15.54572" x2="15.54572" y1="28.0338647916" y2="2.89610346856"><stop offset="0" stop-color="#f48fb1"/><stop offset="1" stop-color="#f8bbd0"/></linearGradient><linearGradient id="i" gradientTransform="matrix(.0298942 0 0 .109385 15.042423 -16.36091)" gradientUnits="userSpaceOnUse" x1="249.18942" x2="249.18942" xlink:href="#a" y1="233.5" y2="254.66669"/><linearGradient id="j"><stop offset="0" stop-color="#ec407a"/><stop offset="1" stop-color="#f06292"/></linearGradient><linearGradient id="k" gradientUnits="userSpaceOnUse" x1="21.16869824996" x2="21.16869824996" xlink:href="#j" y1="28.033934" y2="2.89610412498"/><linearGradient id="l" gradientUnits="userSpaceOnUse" x1="940" x2="940" xlink:href="#j" y1="1695.1182" y2="175.11812"/><path d="m7.9375 28.035156h15.214844v1.320313h-15.214844zm0 0" fill="url(#b)"/><path d="m23.152344 28.035156h2.648437v-1.324218h-2.648437zm0 0" fill="url(#d)"/><path d="m7.9375 28.035156h-2.644531v1.320313h2.644531zm0 0" fill="url(#e)"/><path d="m7.9375 28.035156h-2.644531v-1.324218h2.644531zm0 0" fill="url(#f)"/><path d="m23.152344 28.035156h2.648437v1.320313h-2.648437zm0 0" fill="url(#g)"/><path d="m18.542969 2.894531h-11.929688c-.730469 0-1.320312.589844-1.320312 1.324219v22.492188c0 .734374.589843 1.324218 1.320312 1.324218h17.863281c.734376 0 1.324219-.589844 1.324219-1.324218v-16.558594zm0 0" fill="url(#h)"/><path d="m18.523438 9.179688h6.285156l.992187.992187v1.324219h-7.277343zm0 0" fill="url(#i)"/><path d="m5.292969 26.195312v.515626c0 .734374.589843 1.324218 1.320312 1.324218h17.863281c.734376 0 1.324219-.589844 1.324219-1.324218v-.515626c0 .734376-.589843 1.324219-1.324219 1.324219h-17.863281c-.730469 0-1.320312-.589843-1.320312-1.324219zm0 0" fill-opacity=".235294"/><path d="m6.613281 2.894531c-.730469 0-1.320312.589844-1.320312 1.324219v.496094c0-.734375.589843-1.324219 1.320312-1.324219h11.929688l7.257812 7.257813v-.496094l-7.257812-7.257813zm0 0" fill="#f6f6f6" fill-opacity=".588235"/><path d="m25.800781 10.152344-7.257812-7.257813v5.9375c0 .730469.589843 1.320313 1.320312 1.320313zm0 0" fill="url(#k)"/><path d="m18.542969 8.519531v.3125c0 .730469.589843 1.320313 1.320312 1.320313h5.9375l-.3125-.308594h-5.625c-.730469 0-1.320312-.589844-1.320312-1.324219zm0 0" fill-opacity=".235294"/><path d="m18.542969 2.894531v.496094l6.761719 6.761719h.496093zm0 0" fill="#fff" fill-opacity=".392157"/><path d="m18.539062 2.800781c-.050781.003907-.089843.042969-.089843.09375v5.9375c0 .78125.632812 1.414063 1.414062 1.414063h5.9375c.035157 0 .070313-.023438.085938-.058594s.003906-.074219-.019531-.101562l-7.257813-7.257813c-.019531-.015625-.042969-.027344-.070313-.027344zm.097657.320313 6.9375 6.9375h-5.710938c-.679687 0-1.226562-.546875-1.226562-1.226563zm0 0" fill="#212121"/><path d="m6.613281 2.800781c-.78125 0-1.414062.636719-1.414062 1.417969v22.492188c0 .785156.632812 1.417968 1.414062 1.417968h17.863281c.78125 0 1.417969-.632812 1.417969-1.417968v-16.558594c0-.023438-.011719-.046875-.027343-.066406l-7.257813-7.257813c-.019531-.015625-.042969-.027344-.066406-.027344zm0 .1875h11.890625l7.203125 7.203125v16.519532c0 .683593-.546875 1.230468-1.230469 1.230468h-17.863281c-.679687 0-1.226562-.546875-1.226562-1.230468v-22.492188c0-.683594.546875-1.230469 1.226562-1.230469zm0 0" fill="#212121"/><path d="m620.019539 695.130478c-11.101302 0-20.076823 8.97552-20.076823 20.076823v519.871621c0 11.101302 8.975521 20.076823 20.076823 20.076823h640.096362c10.865105 0 19.840626-8.975521 19.840626-20.076823v-519.871621c0-11.101303-8.975521-20.076823-19.840626-20.076823zm80.071095 80.071094h479.954173c11.101302 0 19.840625 8.739323 19.840625 19.840626v359.965629c0 11.101302-10.865105 26.454167-19.840625 20.076823-37.319272-25.745573-59.994272-59.994271-100.147918-59.994271-46.530991 0-90.227606 39.917448-139.829169 39.917448-40.153646 0-59.994271-119.988543-119.988543-119.988543s-65.190626 34.248698-119.988543 140.065366c-5.196354 9.920313-20.076823-8.975521-20.076823-20.076823v-359.965629c0-11.101303 8.975521-19.840626 20.076823-19.840626zm349.809119 59.994272c-38.736459 0-69.914584 31.178125-69.914584 69.914584s31.178125 69.914584 69.914584 69.914584c38.972657 0 70.150782-31.178125 70.150782-69.914584s-31.178125-69.914584-70.150782-69.914584zm0 0" fill="url(#l)" stroke="#212121" stroke-linecap="round" stroke-linejoin="round" stroke-width="11.338583" transform="scale(.016538)"/></svg>

<svg xmlns="http://www.w3.org/2000/svg" xmlns:xlink="http://www.w3.org/1999/xlink" width="32px" height="32px" viewBox="0 0 32 32" version="1.1">
<defs>
<linearGradient id="linear0" gradientUnits="userSpaceOnUse" x1="33.076088" y1="56.067871" x2="33.076088" y2="58.713959" gradientTransform="matrix(0.5,0,0,0.5,0,0)">
<stop offset="0" style="stop-color:rgb(0%,0%,0%);stop-opacity:0.27451;"/>
<stop offset="1" style="stop-color:rgb(0%,0%,0%);stop-opacity:0;"/>
</linearGradient>
<radialGradient id="radial0" gradientUnits="userSpaceOnUse" cx="450.908936" cy="189.579361" fx="450.908936" fy="189.579361" r="21.166656" gradientTransform="matrix(0.000000175,-0.0781325,-0.140639,-0.0000001,49.48457,63.595333)">
<stop offset="0" style="stop-color:rgb(0%,0%,0%);stop-opacity:0.313725;"/>
<stop offset="0.222222" style="stop-color:rgb(0%,0%,0%);stop-opacity:0.27451;"/>
<stop offset="1" style="stop-color:rgb(0%,0%,0%);stop-opacity:0;"/>
</radialGradient>
<radialGradient id="radial1" gradientUnits="userSpaceOnUse" cx="450.908936" cy="189.579361" fx="450.908936" fy="189.579361" r="21.166656" gradientTransform="matrix(-0.000000175,0.0781325,0.140639,0.0000001,-18.393051,-7.527479)">
<stop offset="0" style="stop-color:rgb(0%,0%,0%);stop-opacity:0.313725;"/>
<stop offset="0.222222" style="stop-color:rgb(0%,0%,0%);stop-opacity:0.27451;"/>
<stop offset="1" style="stop-color:rgb(0%,0%,0%);stop-opacity:0;"/>
</radialGradient>
<radialGradient id="radial2" gradientUnits="userSpaceOnUse" cx="450.908936" cy="189.579361" fx="450.908936" fy="189.579361" r="21.166656" gradientTransform="matrix(-0.000000175,-0.0781325,0.140639,-0.0000001,-18.393051,63.595333)">
<stop offset="0" style="stop-color:rgb(0%,0%,0%);stop-opacity:0.313725;"/>
<stop offset="0.222222" style="stop-color:rgb(0%,0%,0%);stop-opacity:0.27451;"/>
<stop offset="1" style="stop-color:rgb(0%,0%,0%);stop-opacity:0;"/>
</radialGradient>
<radialGradient id="radial3" gradientUnits="userSpaceOnUse" cx="450.908936" cy="189.579361" fx="450.908936" fy="189.579361" r="21.166656" gradientTransform="matrix(0.000000175,0.0781325,-0.140639,0.0000001,49.484566,-7.52748)">
<stop offset="0" style="stop-color:rgb(0%,0%,0%);stop-opacity:0.313725;"/>
<stop offset="0.222222" style="stop-color:rgb(0%,0%,0%);stop-opacity:0.27451;"/>
<stop offset="1" style="stop-color:rgb(0%,0%,0%);stop-opacity:0;"/>
</radialGradient>
<linearGradient id="linear1" gradientUnits="userSpaceOnUse" x1="31.091534" y1="56.067898" x2="31.091534" y2="5.792224" gradientTransform="matrix(0.5,0,0,0.5,0,0)">
<stop offset="0" style="stop-color:rgb(95.686275%,56.078434%,69.411767%);stop-opacity:1;"/>
<stop offset="1" style="stop-color:rgb(97.254902%,73.333335%,81.568629%);stop-opacity:1;"/>
</linearGradient>
<linearGradient id="linear2" gradientUnits="userSpaceOnUse" x1="249.189423" y1="233.5" x2="249.189423" y2="254.666687" gradientTransform="matrix(0.0298942,0,0,0.109385,15.042423,-16.36091)">
<stop offset="0" style="stop-color:rgb(0%,0%,0%);stop-opacity:0.27451;"/>
<stop offset="1" style="stop-color:rgb(0%,0%,0%);stop-opacity:0;"/>
</linearGradient>
<linearGradient id="linear3" gradientUnits="userSpaceOnUse" x1="42.337395" y1="56.067867" x2="42.337395" y2="5.792208" gradientTransform="matrix(0.5,0,0,0.5,0,0)">
<stop offset="0" style="stop-color:rgb(92.54902%,25.098041%,47.843137%);stop-opacity:1;"/>
<stop offset="1" style="stop-color:rgb(94.117647%,38.431373%,57.254905%);stop-opacity:1;"/>
</linearGradient>
<linearGradient id="linear4" gradientUnits="userSpaceOnUse" x1="940" y1="1695.118164" x2="940" y2="175.118118" >
<stop offset="0" style="stop-color:rgb(92.54902%,25.098041%,47.843137%);stop-opacity:1;"/>
<stop offset="1" style="stop-color:rgb(94.117647%,38.431373%,57.254905%);stop-opacity:1;"/>
</linearGradient>
</defs>
<g id="surface1">
<path style=" stroke:none;fill-rule:nonzero;fill:url(#linear0);" d="M 7.9375 28.03125 L 23.152344 28.03125 L 23.152344 29.359375 L 7.9375 29.359375 Z M 7.9375 28.03125 "/>
<path style=" stroke:none;fill-rule:nonzero;fill:url(#radial0);" d="M 23.152344 28.03125 L 25.796875 28.03125 L 25.796875 26.710938 L 23.152344 26.710938 Z M 23.152344 28.03125 "/>
<path style=" stroke:none;fill-rule:nonzero;fill:url(#radial1);" d="M 7.9375 28.03125 L 5.292969 28.03125 L 5.292969 29.359375 L 7.9375 29.359375 Z M 7.9375 28.03125 "/>
<path style=" stroke:none;fill-rule:nonzero;fill:url(#radial2);" d="M 7.9375 28.03125 L 5.292969 28.03125 L 5.292969 26.710938 L 7.9375 26.710938 Z M 7.9375 28.03125 "/>
<path style=" stroke:none;fill-rule:nonzero;fill:url(#radial3);" d="M 23.152344 28.03125 L 25.796875 28.03125 L 25.796875 29.359375 L 23.152344 29.359375 Z M 23.152344 28.03125 "/>
<path style=" stroke:none;fill-rule:nonzero;fill:url(#linear1);" d="M 18.542969 2.898438 L 6.617188 2.898438 C 5.882812 2.898438 5.292969 3.484375 5.292969 4.21875 L 5.292969 26.710938 C 5.292969 27.445312 5.882812 28.03125 6.617188 28.03125 L 24.476562 28.03125 C 25.210938 28.03125 25.796875 27.445312 25.796875 26.710938 L 25.796875 10.15625 Z M 18.542969 2.898438 "/>
<path style=" stroke:none;fill-rule:nonzero;fill:url(#linear2);" d="M 18.523438 9.179688 L 24.804688 9.179688 L 25.796875 10.171875 L 25.796875 11.496094 L 18.523438 11.496094 Z M 18.523438 9.179688 "/>
<path style=" stroke:none;fill-rule:nonzero;fill:rgb(0%,0%,0%);fill-opacity:0.235294;" d="M 5.292969 26.195312 L 5.292969 26.710938 C 5.292969 27.445312 5.882812 28.03125 6.617188 28.03125 L 24.476562 28.03125 C 25.210938 28.03125 25.796875 27.445312 25.796875 26.710938 L 25.796875 26.195312 C 25.796875 26.929688 25.210938 27.519531 24.476562 27.519531 L 6.617188 27.519531 C 5.882812 27.519531 5.292969 26.929688 5.292969 26.195312 Z M 5.292969 26.195312 "/>
<path style=" stroke:none;fill-rule:nonzero;fill:rgb(96.470588%,96.470588%,96.470588%);fill-opacity:0.588235;" d="M 6.617188 2.898438 C 5.882812 2.898438 5.292969 3.484375 5.292969 4.21875 L 5.292969 4.714844 C 5.292969 3.984375 5.882812 3.390625 6.617188 3.390625 L 18.542969 3.390625 L 25.796875 10.648438 L 25.796875 10.15625 L 18.542969 2.898438 Z M 6.617188 2.898438 "/>
<path style=" stroke:none;fill-rule:nonzero;fill:url(#linear3);" d="M 25.796875 10.15625 L 18.542969 2.898438 L 18.542969 8.828125 C 18.542969 9.5625 19.132812 10.15625 19.867188 10.15625 Z M 25.796875 10.15625 "/>
<path style=" stroke:none;fill-rule:nonzero;fill:rgb(0%,0%,0%);fill-opacity:0.235294;" d="M 18.542969 8.519531 L 18.542969 8.828125 C 18.542969 9.5625 19.132812 10.15625 19.867188 10.15625 L 25.796875 10.15625 L 25.488281 9.84375 L 19.867188 9.84375 C 19.132812 9.84375 18.542969 9.25 18.542969 8.519531 Z M 18.542969 8.519531 "/>
<path style=" stroke:none;fill-rule:nonzero;fill:rgb(100%,100%,100%);fill-opacity:0.392157;" d="M 18.542969 2.898438 L 18.542969 3.390625 L 25.304688 10.15625 L 25.796875 10.15625 Z M 18.542969 2.898438 "/>
<path style=" stroke:none;fill-rule:nonzero;fill:rgb(12.941177%,12.941177%,12.941177%);fill-opacity:1;" d="M 18.539062 2.804688 C 18.492188 2.804688 18.449219 2.84375 18.449219 2.898438 L 18.449219 8.828125 C 18.449219 9.613281 19.082031 10.25 19.867188 10.25 L 25.796875 10.25 C 25.835938 10.246094 25.871094 10.226562 25.886719 10.1875 C 25.898438 10.15625 25.890625 10.113281 25.867188 10.085938 L 18.609375 2.828125 C 18.589844 2.8125 18.566406 2.804688 18.539062 2.804688 Z M 18.636719 3.125 L 25.570312 10.058594 L 19.867188 10.058594 C 19.179688 10.058594 18.636719 9.515625 18.636719 8.828125 Z M 18.636719 3.125 "/>
<path style=" stroke:none;fill-rule:nonzero;fill:rgb(12.941177%,12.941177%,12.941177%);fill-opacity:1;" d="M 6.617188 2.804688 C 5.832031 2.804688 5.199219 3.4375 5.199219 4.21875 L 5.199219 26.710938 C 5.199219 27.492188 5.832031 28.125 6.617188 28.125 L 24.476562 28.125 C 25.257812 28.125 25.890625 27.492188 25.890625 26.710938 L 25.890625 10.15625 C 25.890625 10.128906 25.882812 10.105469 25.867188 10.085938 L 18.609375 2.828125 C 18.589844 2.8125 18.566406 2.804688 18.542969 2.804688 Z M 6.617188 2.992188 L 18.503906 2.992188 L 25.703125 10.191406 L 25.703125 26.710938 C 25.703125 27.390625 25.15625 27.9375 24.476562 27.9375 L 6.617188 27.9375 C 5.929688 27.9375 5.386719 27.390625 5.386719 26.710938 L 5.386719 4.21875 C 5.386719 3.539062 5.929688 2.992188 6.617188 2.992188 Z M 6.617188 2.992188 "/>
<path style="fill-rule:nonzero;fill:url(#linear4);stroke-width:11.338583;stroke-linecap:round;stroke-linejoin:round;stroke:rgb(12.941177%,12.941177%,12.941177%);stroke-opacity:1;stroke-miterlimit:4;" d="M 620.019061 695.129942 C 608.917767 695.129942 599.942253 704.105456 599.942253 715.206749 L 599.942253 1235.07797 C 599.942253 1246.179263 608.917767 1255.154777 620.019061 1255.154777 L 1260.11493 1255.154777 C 1271.216224 1255.154777 1279.95554 1246.179263 1279.95554 1235.07797 L 1279.95554 715.206749 C 1279.95554 704.105456 1271.216224 695.129942 1260.11493 695.129942 Z M 700.090094 775.200975 L 1180.043897 775.200975 C 1191.145191 775.200975 1200.120705 784.176489 1200.120705 795.277782 L 1200.120705 1155.243134 C 1200.120705 1166.344428 1189.255609 1181.461083 1180.043897 1175.083744 C 1142.960852 1149.338191 1120.049672 1115.089519 1080.132254 1115.089519 C 1033.6013 1115.089519 989.66852 1155.243134 940.066996 1155.243134 C 900.149578 1155.243134 880.07277 1035.254684 820.078545 1035.254684 C 760.08432 1035.254684 754.887969 1069.267158 700.090094 1175.083744 C 694.893744 1185.004049 680.013286 1166.344428 680.013286 1155.243134 L 680.013286 795.277782 C 680.013286 784.176489 688.988801 775.200975 700.090094 775.200975 Z M 1050.135141 835.1952 C 1011.162515 835.1952 979.984413 866.373301 979.984413 905.10973 C 979.984413 943.846159 1011.162515 975.260458 1050.135141 975.260458 C 1088.87157 975.260458 1120.049672 943.846159 1120.049672 905.10973 C 1120.049672 866.373301 1088.87157 835.1952 1050.135141 835.1952 Z M 1050.135141 835.1952 " transform="matrix(0.0165381,0,0,0.0165381,0,0)"/>
</g>
</svg>
